X:0281
T:Bonny Lass of Livingston.
M:C
L:1/8
Q:1/4=96
I: :: ::
Z:Jack Campin * www.campin.me.uk * 2009
K:E Minor
DE |G3 A     B3 e|(dB)(de) dBAG|B2A2 {B}A2(GA)|B2A2 A2
GE |DEGA     B3 e| dBAB    GABd|e2E2    E2 DE |G2E2 E2::
d>e|g3     a gaba| gdeg    dBAG|B2A2 {B}A2 GA |B2A2 A2
ga |b/a/g ab gdeg| dABG    ABcd|e2E2    E2 DE |G2E2 E2:|

